X:9
M:9/8
L:1/8
K:D
d2A ABA AGF|E2e efg f2e|d2A AFA Bcd|A,2D DEF E2D|
d2A ABA AGF|E2e efg f2e|d>cB AFA Bcd|A,2D DEF E2D||

